build/system/CalendarOutline.svg

<svg xmlns="http://www.w3.org/2000/svg" fill="none" viewBox="0 0 24 24" focusable="false"><path d="M0 0H24V24H0z"/><path fill="#74767B" fill-rule="evenodd" d="M8.13998 1.94995C8.49896 1.94995 8.78998 2.24097 8.78998 2.59995L8.78998 3.98996L11.35 3.98996L11.35 2.59995C11.35 2.24097 11.641 1.94995 12 1.94995C12.359 1.94995 12.65 2.24097 12.65 2.59995L12.65 3.98996L15.2 3.98996L15.2 2.59995C15.2 2.24097 15.491 1.94995 15.85 1.94995C16.209 1.94995 16.5 2.24097 16.5 2.59995L16.5 3.98996L17 3.98996C18.65 3.98996 20 5.32996 20 6.98996L20 17.12C20 18.78 18.66 20.12 17 20.12L7 20.12C5.34 20.12 4 18.78 4 17.12L4 6.98996C4 5.32996 5.34 3.98996 7 3.98996L7.48998 3.98996L7.48998 2.59995C7.48998 2.24097 7.78099 1.94995 8.13998 1.94995ZM7.48998 6.85995L7.48998 5.28996L7 5.28996C6.06 5.28996 5.3 6.04996 5.3 6.98996L5.3 9.34997L18.7 9.34997L18.7 6.98996C18.7 6.04996 17.94 5.28996 17 5.28996L16.5 5.28996L16.5 6.85995C16.5 7.21894 16.209 7.50995 15.85 7.50995C15.491 7.50995 15.2 7.21894 15.2 6.85995L15.2 5.28996L12.65 5.28996L12.65 6.85995C12.65 7.21894 12.359 7.50995 12 7.50995C11.641 7.50995 11.35 7.21894 11.35 6.85995L11.35 5.28996L8.78998 5.28996L8.78998 6.85995C8.78998 7.21894 8.49896 7.50995 8.13998 7.50995C7.78099 7.50995 7.48998 7.21894 7.48998 6.85995ZM18.7 10.65L5.3 10.65L5.3 17.12C5.3 18.06 6.06 18.82 7 18.82L17 18.82C17.94 18.82 18.7 18.06 18.7 17.12L18.7 10.65ZM8.88002 12.65C8.13104 12.65 7.53002 13.251 7.53002 14L7.53002 15.32C7.53002 16.0689 8.13104 16.67 8.88002 16.67L11.2 16.67C11.949 16.67 12.55 16.0689 12.55 15.32L12.55 14C12.55 13.251 11.949 12.65 11.2 12.65L8.88002 12.65ZM8.83002 14C8.83002 13.9812 8.83633 13.9704 8.84339 13.9633C8.85046 13.9563 8.86122 13.95 8.88002 13.95L11.2 13.95C11.2188 13.95 11.2296 13.9563 11.2367 13.9633C11.2437 13.9704 11.25 13.9812 11.25 14L11.25 15.32C11.25 15.3388 11.2437 15.3495 11.2367 15.3566C11.2296 15.3637 11.2188 15.37 11.2 15.37L8.88002 15.37C8.86122 15.37 8.85046 15.3637 8.84339 15.3566C8.83633 15.3495 8.83002 15.3388 8.83002 15.32L8.83002 14Z"/></svg>

<svg xmlns="http://www.w3.org/2000/svg" fill="none" viewBox="0 0 24 24" focusable="false"><path fill="#74767B" fill-rule="evenodd" d="M8.14 1.94c.35 0 .65.3.65.65v1.39h2.56V2.59c0-.35.29-.65.65-.65.35 0 .64.3.64.65v1.39h2.56V2.59c0-.35.29-.65.65-.65.35 0 .65.3.65.65v1.39h.5c1.64 0 3 1.34 3 3v10.13c0 1.67-1.34 3-3 3H7c-1.67 0-3-1.33-3-3V6.98c0-1.66 1.33-3 3-3h.48V2.59c0-.35.3-.65.66-.65m-.66 4.91V5.28H7c-.94 0-1.71.76-1.71 1.7v2.36H18.7V6.98c0-.94-.77-1.7-1.7-1.7h-.5v1.57c0 .36-.3.65-.65.65-.36 0-.65-.29-.65-.65V5.28h-2.56v1.57c0 .36-.29.65-.64.65-.36 0-.65-.29-.65-.65V5.28H8.79v1.57a.655.655 0 0 1-1.31 0m11.22 3.8H5.29v6.46c0 .94.77 1.7 1.71 1.7h10c.93 0 1.7-.76 1.7-1.7zM7.52 13.99c0-.74.61-1.34 1.35-1.34h2.33c.74 0 1.34.6 1.34 1.34v1.32c0 .75-.6 1.36-1.34 1.36H8.87c-.74 0-1.35-.61-1.35-1.36zm1.32-.03c-.01.01-.01.02-.01.03v1.32c0 .02 0 .03.01.04s.02.01.03.01h2.33c.01 0 .02 0 .03-.01s.02-.02.02-.04v-1.32c0-.01-.01-.02-.02-.03s-.02-.01-.03-.01H8.87c-.01 0-.02 0-.03.01"/></svg>
